templates/main/source/images/service-4.svg

<?xml version="1.0" encoding="utf-8"?>
<svg width="40px" height="40px" viewBox="0 0 40 40" version="1.1" xmlns:xlink="http://www.w3.org/1999/xlink" xmlns="http://www.w3.org/2000/svg">
  <desc>Created with Lunacy</desc>
  <g id="truck">
    <path d="M38.75 0L1.25 0C0.56 0 0 0.56 0 1.25L0 28.75C0 29.44 0.56 30 1.25 30L17.5 30L17.5 27.5L2.5 27.5L2.5 2.5L37.5 2.5L37.5 27.5L35 27.5L35 30L38.75 30C39.44 30 40 29.44 40 28.75L40 1.25C40 0.56 39.44 0 38.75 0" transform="translate(0 1.6666824)" id="Fill-1" fill="#8C0014" stroke="none" />
    <path d="M0 7.5C0 3.36375 3.36375 0 7.5 0C11.6362 0 15 3.36375 15 7.5C15 9.02867 14.5388 10.45 13.75 11.6375L13.75 23.7475C13.75 24.2212 13.4825 24.6537 13.0588 24.8663C12.8825 24.9537 12.69 24.9975 12.5 24.9975C12.235 24.9975 11.9712 24.9125 11.75 24.7475L7.5 21.56L3.25 24.7475C2.87 25.03 2.36375 25.0774 1.94125 24.8663C1.5175 24.6537 1.25 24.2212 1.25 23.7475L1.25 11.6375C0.46125 10.45 0 9.02867 0 7.5ZM7.5 12.5C4.7425 12.5 2.5 10.2575 2.5 7.5C2.5 4.7425 4.7425 2.5 7.5 2.5C10.2575 2.5 12.5 4.7425 12.5 7.5C12.5 10.2575 10.2575 12.5 7.5 12.5ZM11.25 21.2475L8.25 18.9975C7.80625 18.6638 7.19375 18.6638 6.75 18.9975L3.75 21.2475L3.75 13.985C4.855 14.6263 6.13375 15 7.5 15C8.86625 15 10.145 14.6263 11.25 13.985L11.25 21.2475Z" transform="translate(18.75 14.169198)" id="Fill-3" fill="#8C0014" fill-rule="evenodd" stroke="none" />
    <path d="M0 2.5L10 2.5L10 0L0 0L0 2.5Z" transform="translate(5 6.6666665)" id="Fill-6" fill="#A6A6A6" stroke="none" />
    <path d="M0 2.5L2.5 2.5L2.5 0L0 0L0 2.5Z" transform="translate(5 11.666666)" id="Fill-8" fill="#A6A6A6" stroke="none" />
    <path d="M0 2.5L2.5 2.5L2.5 0L0 0L0 2.5Z" transform="translate(10 11.666666)" id="Fill-9" fill="#A6A6A6" stroke="none" />
    <path d="M0 2.5L10 2.5L10 0L0 0L0 2.5Z" transform="translate(5 17.916666)" id="Fill-10" fill="#A6A6A6" stroke="none" />
    <path d="M0 2.5L10 2.5L10 0L0 0L0 2.5Z" transform="translate(5 22.916666)" id="Fill-11" fill="#A6A6A6" stroke="none" />
    <path d="M0 2.5L2.5 2.5L2.5 0L0 0L0 2.5Z" transform="translate(32.5 6.6666665)" id="Fill-12" fill="#A6A6A6" stroke="none" />
    <path d="M0 2.5L2.5 2.5L2.5 0L0 0L0 2.5Z" transform="translate(27.5 6.6666665)" id="Fill-13" fill="#A6A6A6" stroke="none" />
  </g>
</svg>

<svg width="40" height="40" viewBox="0 0 40 40" xmlns:xlink="http://www.w3.org/1999/xlink" xmlns="http://www.w3.org/2000/svg"><g id="truck" stroke="none"><path d="M38.75 0H1.25C.56 0 0 .56 0 1.25v27.5C0 29.44.56 30 1.25 30H17.5v-2.5h-15v-25h35v25H35V30h3.75c.69 0 1.25-.56 1.25-1.25V1.25C40 .56 39.44 0 38.75 0" transform="translate(0 1.667)" id="Fill-1" fill="#8C0014"/><path d="M0 7.5C0 3.364 3.364 0 7.5 0S15 3.364 15 7.5c0 1.529-.461 2.95-1.25 4.137v12.11a1.252 1.252 0 01-2 1L7.5 21.56l-4.25 3.188a1.252 1.252 0 01-2-1v-12.11A7.452 7.452 0 010 7.5zm7.5 5c-2.758 0-5-2.242-5-5s2.242-5 5-5 5 2.242 5 5-2.242 5-5 5zm3.75 8.747l-3-2.25a1.249 1.249 0 00-1.5 0l-3 2.25v-7.262A7.447 7.447 0 007.5 15a7.447 7.447 0 003.75-1.015v7.262z" transform="translate(18.75 14.17)" id="Fill-3" fill="#8C0014" fill-rule="evenodd"/><path d="M0 2.5h10V0H0v2.5z" transform="translate(5 6.667)" id="Fill-6" fill="#A6A6A6"/><path d="M0 2.5h2.5V0H0v2.5z" transform="translate(5 11.667)" id="Fill-8" fill="#A6A6A6"/><path d="M0 2.5h2.5V0H0v2.5z" transform="translate(10 11.667)" id="Fill-9" fill="#A6A6A6"/><path d="M0 2.5h10V0H0v2.5z" transform="translate(5 17.917)" id="Fill-10" fill="#A6A6A6"/><path d="M0 2.5h10V0H0v2.5z" transform="translate(5 22.917)" id="Fill-11" fill="#A6A6A6"/><path d="M0 2.5h2.5V0H0v2.5z" transform="translate(32.5 6.667)" id="Fill-12" fill="#A6A6A6"/><path d="M0 2.5h2.5V0H0v2.5z" transform="translate(27.5 6.667)" id="Fill-13" fill="#A6A6A6"/></g></svg>
